!!!OTL: Soldaten kommen aus dem Krieg (Band 1), S. 153
!!!id: P0825
**kern
*clefG2
*k[f#]
*G:
{8d
=1
8g
8g
16g
16g
4g
8g
=2
4f#
8dd
4dd
8cc
=3
2b}
8r
=4
{8b
=5
8dd
8cc
8b
8b
8cc
8dd
=6
8ee
8ee
8dd
4cc}
=7
{8b
=8
8a
8b
8cc
8a
8b
8cc
=9
8ee
8dd
8dd
4dd
8cc
=10
2b}
8r
=11
{8d
=12
8g
8g
8g
8g
8f#
8g
=13
4a
8dd
4dd
8cc
=14
2b}
8r
=15
{8b
=16
4dd
8cc
4b
8dd
=17
4ee
8dd
4cc}
=18
{8b
=19
8a
8b
8cc
8a
8b
8cc
=20
4ee
8dd
4dd
8cc
=21
2b}
8r
==
*-
!!!minrhy: 16
!!!meters: 6/8 ]  ZZ[6
!!!cut: Soldaten kommen aus dem Krieg (Band 1), S. 153
!!!reg: Lothringen
!!!trd: PINCK, Louis: Verklingende Weisen, Bd 1, Metz 1928
!!!rhy1: X_  X_X_XXX__X_  X__X_X__X_  X___0_
!!!rhy2: X_  X_X_X_X_X_X_  X_X_X_X__
!!!key: P0825  16  G 6/8 ]  ZZ[6
!!!mod: HEPTATONIK IONISCH]  AMBITUS[9
!!!kad: 343343
!!!akz: 11-7533_5364_226533_112533_5364_226533_
!!!fot: 'a__b__c__aw_bv_cv_
!!!for: 'a__b__bw_c__d__c__
!!!fok: '^a_Ma_^__^a_Ma_^__
!! PHRAS[AUFTAKTIG]
!!!fkt: Soldatenlied
!! LOTH VKL
!! PR[23] 2K[3] 2G[23] 3K[0] 3G[0] 4A[5] 4Ü[0] 5A[3] 6K[0] 6G[0]
!! 7K[0] 7G[0] 8A[0] MEHR[0] SI[33] ABS[39] SR[26] SP[8]
!! ST[15] 2k[5] 2g[26] 3k[8] 3g[5] 4d[0] 4ü[0] 5d[0] 6k[0] 6g[0]
!! 7k[0] 7g[0] 8d[0] mehr[0] si[44] dm[-11] sr[31] sp[13]
!! 1F[5] 2F[10] 3F[64] 4F[17] LF[0] 2P[5] 3P[0] 4P[0] TRI[0] DF[5] AB[42]
!! TF[0] U3K[0] U3[0] U4[0] U4Ü[0] U5[0] U6K[0] U6[0] U7K[8] U7[0]
!! N1[23] N2K[0] N2[8] N3K[18] N3[0] N4[20] N4Ü[0] N5[23] N6K[3] N6[0]
!!!n7k: 0] N7[0] O1[0] O2K[0] O2[0] O3K[0] O3[0] HÖ[0
